app/assets/images/payment_icons/JPY.svg

<svg class="icon" width="38px" height="24px" viewBox="0 0 38 24" version="1.1" xmlns="http://www.w3.org/2000/svg" role="img" aria-labelledby="pi-JPY"><title id="pi-JPY">JPY</title><path d="M810.666667 512m-507.733334 0a507.733333 507.733333 0 1 0 1015.466667 0 507.733333 507.733333 0 1 0-1015.466667 0Z" fill="#00479D" /><path d="M746.666667 891.733333v-324.266666l-209.066667-384h136.533333l81.066667 170.666666c21.333333 46.933333 38.4 85.333333 55.466667 132.266667 17.066667-42.666667 34.133333-81.066667 59.733333-132.266667l81.066667-170.666666h136.533333l-217.6 379.733333v328.533333h-123.733333z" fill="#FFFFFF" /><path d="M644.266667 576h328.533333v76.8h-328.533333zM644.266667 708.266667h328.533333v76.8h-328.533333z" fill="#FFFFFF" /></svg>

<svg class="icon" width="38" height="24" viewBox="0 0 38 24" version="1.1" xmlns="http://www.w3.org/2000/svg" role="img" aria-labelledby="pi-JPY"><title id="pi-JPY">JPY</title><path d="M302.93300000000005 512a507.733 507.733 0 101015.467 0 507.733 507.733 0 10-1015.467 0z" fill="#00479D"/><path d="M746.667 891.733V567.467l-209.067-384h136.533L755.2 354.133c21.333 46.934 38.4 85.334 55.467 132.267 17.066-42.667 34.133-81.067 59.733-132.267l81.067-170.666H1088L870.4 563.2v328.533H746.667z" fill="#FFF"/><path d="M644.267 576H972.8v76.8H644.267zm0 132.267H972.8v76.8H644.267z" fill="#FFF"/></svg>
